X:1
T:Mr. George Morrison's (Aberdeen)
T:Mr. George Morrison's (Aberdeen)
T:Alexander Walker
C:Alexander Walker
L:1/8
M:4/4
K:Bb
V:1 treble 
V:1
 b | f<Bd>c B2 F>B | e>gd>f g<cc>b | f<Bd>c B2 FB | e<g{g}f>e d<B B :| e | d>fB>f d<fb>f | %7
 d>fB>d c<(FF>)d | B<fd>f B>c{Bc}d>c | B>G{G}F>E D<(B, B>)d | B>fd>f B<fb>f | e>cd>B c<(C C>)a | %12
 (b/a/)g/f/ (g/f/)e/d/{d} c>Bc>d | G>c (B/A/)G/F/{F} (B2 B) || %14

